X: 41509
T: Uist Dance
R: reel
M: 4/4
K: Dmajor
D<D {c}d2 B>d A2|D<D d>F E>F (3GFE|D<D {c}d2 B>d A2|
G>AF>A E>F (3GFE:|D>AF>A D>AF>A|D>AF>A E>F (3GFE|
D>AF>A D>AF>A|G>AF>A E>F (3GFE|D>AF>A D>AF>A|
D>AF>A E>F (3GFE|D<D {c}d2 B>d A2|G>AF>A E>F (3GFE||

